Esim4/img/bgfreg.svg

<svg width="560" height="232" viewBox="0 0 560 232" fill="none" xmlns="http://www.w3.org/2000/svg">
<path d="M42 68C42 66.3431 40.6569 65 39 65H30C28.3431 65 27 66.3431 27 68V232H42V68Z" fill="#C4C4C4" fill-opacity="0.1"/>
<path d="M518 68C518 66.3431 519.343 65 521 65H530C531.657 65 533 66.3431 533 68V232H518V68Z" fill="#C4C4C4" fill-opacity="0.1"/>
<path d="M82 39C82 37.3431 80.6569 36 79 36H70C68.3431 36 67 37.3431 67 39V232H82V39Z" fill="#C4C4C4" fill-opacity="0.1"/>
<path d="M478 39C478 37.3431 479.343 36 481 36H490C491.657 36 493 37.3431 493 39V232H478V39Z" fill="#C4C4C4" fill-opacity="0.1"/>
<path d="M107 96C107 94.3431 105.657 93 104 93H95C93.3431 93 92 94.3431 92 96V232H107V96Z" fill="#C4C4C4" fill-opacity="0.03"/>
<path d="M453 96C453 94.3431 454.343 93 456 93H465C466.657 93 468 94.3431 468 96V232H453V96Z" fill="#C4C4C4" fill-opacity="0.03"/>
<path d="M132 68C132 66.3431 130.657 65 129 65H120C118.343 65 117 66.3431 117 68V232H132V68Z" fill="#C4C4C4" fill-opacity="0.07"/>
<path d="M428 68C428 66.3431 429.343 65 431 65H440C441.657 65 443 66.3431 443 68V232H428V68Z" fill="#C4C4C4" fill-opacity="0.07"/>
<path d="M156 56C156 54.3431 154.657 53 153 53H144C142.343 53 141 54.3431 141 56V232H156V56Z" fill="#C4C4C4" fill-opacity="0.05"/>
<path d="M404 56C404 54.3431 405.343 53 407 53H416C417.657 53 419 54.3431 419 56V232H404V56Z" fill="#C4C4C4" fill-opacity="0.05"/>
<path d="M181 106C181 104.343 179.657 103 178 103H169C167.343 103 166 104.343 166 106V232H181V106Z" fill="#C4C4C4" fill-opacity="0.03"/>
<path d="M379 106C379 104.343 380.343 103 382 103H391C392.657 103 394 104.343 394 106V232H379V106Z" fill="#C4C4C4" fill-opacity="0.03"/>
<path d="M206 44C206 42.3431 204.657 41 203 41H194C192.343 41 191 42.3431 191 44V232H206V44Z" fill="#C4C4C4" fill-opacity="0.08"/>
<path d="M354 44C354 42.3431 355.343 41 357 41H366C367.657 41 369 42.3431 369 44V232H354V44Z" fill="#C4C4C4" fill-opacity="0.08"/>
<path d="M231 81C231 79.3431 229.657 78 228 78H219C217.343 78 216 79.3431 216 81V232H231V81Z" fill="#C4C4C4" fill-opacity="0.05"/>
<path d="M256 148C256 146.343 254.657 145 253 145H244C242.343 145 241 146.343 241 148V232H256V148Z" fill="#C4C4C4" fill-opacity="0.1"/>
<path d="M282 106C282 104.343 280.657 103 279 103H270C268.343 103 267 104.343 267 106V232H282V106Z" fill="#C4C4C4" fill-opacity="0.03"/>
<path d="M307 127C307 125.343 305.657 124 304 124H295C293.343 124 292 125.343 292 127V232H307V127Z" fill="#C4C4C4" fill-opacity="0.05"/>
<path d="M333 86C333 84.3431 331.657 83 330 83H321C319.343 83 318 84.3431 318 86V232H333V86Z" fill="#C4C4C4" fill-opacity="0.08"/>
<path d="M57 3C57 1.34315 55.6569 0 54 0H45C43.3431 0 42 1.34315 42 3V232H57V3Z" fill="#C4C4C4" fill-opacity="0.05"/>
<path d="M503 3C503 1.34315 504.343 0 506 0H515C516.657 0 518 1.34315 518 3V232H503V3Z" fill="#C4C4C4" fill-opacity="0.05"/>
<path d="M15 5C15 3.34314 13.6569 2 12 2H3C1.34315 2 0 3.34315 0 5V232H15V5Z" fill="#C4C4C4" fill-opacity="0.05"/>
<path d="M545 5C545 3.34314 546.343 2 548 2H557C558.657 2 560 3.34315 560 5V232H545V5Z" fill="#C4C4C4" fill-opacity="0.05"/>
</svg>

<svg width="560" height="232" fill="none" xmlns="http://www.w3.org/2000/svg"><path d="M42 68a3 3 0 00-3-3h-9a3 3 0 00-3 3v164h15V68zM518 68a3 3 0 013-3h9a3 3 0 013 3v164h-15V68zM82 39a3 3 0 00-3-3h-9a3 3 0 00-3 3v193h15V39zM478 39a3 3 0 013-3h9a3 3 0 013 3v193h-15V39z" fill="#C4C4C4" fill-opacity=".1"/><path d="M107 96a3 3 0 00-3-3h-9a3 3 0 00-3 3v136h15V96zM453 96a3 3 0 013-3h9a3 3 0 013 3v136h-15V96z" fill="#C4C4C4" fill-opacity=".03"/><path d="M132 68a3 3 0 00-3-3h-9a3 3 0 00-3 3v164h15V68zM428 68a3 3 0 013-3h9a3 3 0 013 3v164h-15V68z" fill="#C4C4C4" fill-opacity=".07"/><path d="M156 56a3 3 0 00-3-3h-9a3 3 0 00-3 3v176h15V56zM404 56a3 3 0 013-3h9a3 3 0 013 3v176h-15V56z" fill="#C4C4C4" fill-opacity=".05"/><path d="M181 106a3 3 0 00-3-3h-9a3 3 0 00-3 3v126h15V106zM379 106a3 3 0 013-3h9a3 3 0 013 3v126h-15V106z" fill="#C4C4C4" fill-opacity=".03"/><path d="M206 44a3 3 0 00-3-3h-9a3 3 0 00-3 3v188h15V44zM354 44a3 3 0 013-3h9a3 3 0 013 3v188h-15V44z" fill="#C4C4C4" fill-opacity=".08"/><path d="M231 81a3 3 0 00-3-3h-9a3 3 0 00-3 3v151h15V81z" fill="#C4C4C4" fill-opacity=".05"/><path d="M256 148a3 3 0 00-3-3h-9a3 3 0 00-3 3v84h15v-84z" fill="#C4C4C4" fill-opacity=".1"/><path d="M282 106a3 3 0 00-3-3h-9a3 3 0 00-3 3v126h15V106z" fill="#C4C4C4" fill-opacity=".03"/><path d="M307 127a3 3 0 00-3-3h-9a3 3 0 00-3 3v105h15V127z" fill="#C4C4C4" fill-opacity=".05"/><path d="M333 86a3 3 0 00-3-3h-9a3 3 0 00-3 3v146h15V86z" fill="#C4C4C4" fill-opacity=".08"/><path d="M57 3a3 3 0 00-3-3h-9a3 3 0 00-3 3v229h15V3zM503 3a3 3 0 013-3h9a3 3 0 013 3v229h-15V3zM15 5a3 3 0 00-3-3H3a3 3 0 00-3 3v227h15V5zM545 5a3 3 0 013-3h9a3 3 0 013 3v227h-15V5z" fill="#C4C4C4" fill-opacity=".05"/></svg>
